X: 1
T: Ragged Hank Of Yarn, The
M: 4/4
L: 1/8
R: reel
K: Dmix
D2ED EGAB|c2Bd cAGE|D2D/D/D EGAB|1 cAGE CEGE:|2 cAGE EDDc||
~d3d dcAB|cded cAGA|d2ed dcAB|cAGE EDDc|
~d3d dcA2|(3Bcd ed cAGA|d^cde fded|cAGE EDCE||
